!!!OTL: 659. Mariannens Spinnerlied.
!!!COM: Aug. Harder
!!!ODT: 1800 (um)
!!!ARE: Europa, Mitteleuropa, Deutschland
!!!SCT: B0659
!!!TXL: @@DE
!!!YEM: Copyright 1995, estate of Helmut Schaffrath.
**kern	**text
*ICvox	*
*Ivox	*
*clefG2	*
*M3/8	*
*k[f#c#]	*
*D:	*
=1	=1
!LO:TX:a:t=Munter.	!
{4a	Räd-
8f#	-chen,
=2	=2
4d	Rädchen,
8d	.
=3	=3
8eL	ge-
8dJ	.
8e	-he,
=4	=4
4f#	ge-
8d}	-he!
=5	=5
{4d	Fäd-
8f#	-chen,
=6	=6
4a	Fädchen,
8dd	.
=7	=7
8ddq	.
8cc#L	dre-
8bJ	.
8cc#	-he,
=8	=8
4dd	dre-
8a}	-he!
=9	=9
8eeq	.
{8ddL	Dreh'
8cc#J	.
8dd	dich,
=10	=10
8cc#L	oh-
8ddJ	.
8ee	-ne
=11	=11
8ddL	ſtill
8cc#J	.
8b	ʒu
=12	=12
4.a}	ſtehn!
=13	=13
{4a	Denn
8a	im
=14	=14
4b	Him-
8a	-mel
=15	=15
8bq	.
8aL	und
8g#J	.
8a	auf
=16	=16
4ee	Er-
8cc#}	-den
=17	=17
{8aL	kann
8g#J	.
8a	kein
=18	=18
4dd	Son-
8dd	-nen-
=19	=19
8ff#q	.
8eeL	-ſtäubchen
8ddJ	.
8ee	.
=20	=20
4ff#	wer-
8dd}	-den,
=21	=21
8eeq	.
{8ddL	oh-
8cc#J	.
8dd	-ne
=22	=22
8aL	Gehn
8g#J	.
8a	und
=23	=23
8f#L	oh-
8eJ	.
8f#	-ne
=24	=24
(8gq	.
4b)	Drehn.
8r}	.
=25	=25
{8ddL	oh-
8cc#J	.
8b	-ne
=26	=26
8aL	Gegn
8bJ	.
8a	und
=27	=27
8aq	.
8gL	oh-
8f#J	.
8e	-ne
=28	=28
4d	Dregn.
8r}	.
==	==
!!!AGN: Moral - Lied
!!!GTL: Didaktische Lieder: Betrachtungen, Vergleiche und Moralisationen
!!!ONB: ESAC (Essen Associative Code) Database: BOEHME
!!!AMT: simple triple
!!!AIN: vox
!!!EED: Helmut Schaffrath
!!!EEV: 1.0
!!Harder um 1800.
!!@@COMMENT:"Verſe (denn ein Gedicht iſt's wahrhaftig nicht) von Anton Wall in Leipʒig nur gefertigt
!!und vom dortigen Muſiklehrer Harder um 1800 komponirt. Das Lied war lange beliebt und
!!ſteht noch bei Fink und in Härtes "Liederlexikon". - Die über den Nutʒen des Drehens ſich ergeben-
!!den Reime im Munde einer Spinnerin erſcheinen recht altklug. Poetiſcher iſt dagegen das Spinn-
!!liedchen Bürgers: "Hurre, hurre, hurre! Schnurre, Rädchen, ſchnurre. Trille, Rädchen, lang und fein,
!!trille fein ein Fädelein mir ʒum Buſenſchleier!" ec."
!!@@END:
!!!Text: A. Wall
!!!URL-scan: https://archive.org/details/BoehmeVtLieder1895/page/n513/mode/2up
!!!ENC: Anna Maria Matuszewska
!!!EEV: 2024/16/07
*-	*-
